icons/1_Primary/LastPass.svg

<svg xmlns="http://www.w3.org/2000/svg" viewBox="0 0 1024 1024">
   <circle cx="512" cy="512" r="512" style="fill:#d32d27"/>
   <path d="M741.2 394.9c0-7.8 6-13.8 13.8-13.8 7.8 0 13.8 6 13.8 13.8v220.8c0 7.8-6 13.8-13.8 13.8-7.8 0-13.8-6-13.8-13.8V394.9zm-437.9 69c25.9 0 46.8 21 46.8 46.8 0 25.8-20.9 46.8-46.8 46.8-25.8 0-46.8-21-46.8-46.8 0-25.9 21-46.8 46.8-46.8m156 0c25.8 0 46.8 21 46.8 46.8 0 25.8-21 46.8-46.8 46.8-25.9 0-46.8-21-46.8-46.8 0-25.9 21-46.8 46.8-46.8m156.1 0c25.8 0 46.8 21 46.8 46.8 0 25.8-21 46.8-46.8 46.8-25.8 0-46.8-21-46.8-46.8 0-25.9 20.9-46.8 46.8-46.8" style="fill:#fff"/>
</svg>

<svg width="1024" height="1024" viewBox="0 0 1024 1024" fill="none" xmlns="http://www.w3.org/2000/svg">
<g clip-path="url(#clip0_2_2655)">
<path d="M512 1024C794.77 1024 1024 794.77 1024 512C1024 229.23 794.77 0 512 0C229.23 0 0 229.23 0 512C0 794.77 229.23 1024 512 1024Z" fill="#FF837D"/>
<path d="M741.2 394.9C741.2 387.1 747.2 381.1 755 381.1C762.8 381.1 768.8 387.1 768.8 394.9V615.7C768.8 623.5 762.8 629.5 755 629.5C747.2 629.5 741.2 623.5 741.2 615.7V394.9ZM303.3 463.9C329.2 463.9 350.1 484.9 350.1 510.7C350.1 536.5 329.2 557.5 303.3 557.5C277.5 557.5 256.5 536.5 256.5 510.7C256.5 484.8 277.5 463.9 303.3 463.9ZM459.3 463.9C485.1 463.9 506.1 484.9 506.1 510.7C506.1 536.5 485.1 557.5 459.3 557.5C433.4 557.5 412.5 536.5 412.5 510.7C412.5 484.8 433.5 463.9 459.3 463.9ZM615.4 463.9C641.2 463.9 662.2 484.9 662.2 510.7C662.2 536.5 641.2 557.5 615.4 557.5C589.6 557.5 568.6 536.5 568.6 510.7C568.6 484.8 589.5 463.9 615.4 463.9Z" fill="white"/>
</g>
<defs>
<clipPath id="clip0_2_2655">
<rect width="1024" height="1024" fill="white"/>
</clipPath>
</defs>
</svg>
